!!!COM: Scriabin, Alexander
!!!OTL: Prelude
!!!OPR: 6 Preludes
!!!OPS: 13
!!!ONM: 1
!!!ODT: 1895
!!!AGN: Prelude
**kern	**kern
*staff2	*staff1
*clefF4	*clefG2
*k[]	*k[]
*C:	*C:
*M3/4	*M3/4
=1	=1
4FFF 4FF	4A 4d 4f
4GGG 4GG	4G 4B 4e
4AAA 4AA	4E 4G 4c
=2	=2
*	*^
4AAA 4AA	8.dL	4F 4c
.	16eJk	.
4DDD 4DD	4f	4F 4c
4GGG 4GG	8.eL	4B
.	16fJk	.
*	*v	*v
=3	=3
4FFF 4FF	4A 4c 4a
4GGG 4GG	4B 4e 4g
4AAA 4AA	4G 4c 4e
=4	=4
*	*^
4AAA 4AA	8.FL 8.c 8.d 8.f	4rc
.	[16cJk 16e 16g	.
4DDD 4DD	4c] 4f 4a	4rc
4GGG 4GG	4G 4B 4g	8.eL
.	.	16dJk
*	*v	*v
=5	=5
4..FF 4..F	4r
.	4G 4c 4g
16FF 16F	.
8.EEL 8.E	4A 4c 4g 4a
16DDJk 16D	.
=6	=6
4GG 4G	4B 4d 4g 4b
8.FFL 8.F	4c 4f 4a 4cc
16EEJk 16E	.
8.DDL 8.D	4d 4f 4a 4dd
16CCJk 16C	.
=7	=7
4AA 4A	4e 4a 4cc 4ee
8.FFL 8.F	4f 4a 4cc 4ff
16DDJk 16D	.
8.CCL 8.C	4a 4cc 4ff 4aa
16AAAJk 16AA	.
=8	=8
8.FL 8.f	4cc 4ff 4ccc
16DDDJk 16DD	.
4F 4f	4dd 4aa 4ccc 4ddd
4GGG 4GG	4G 4B 4d
=9	=9
4FFF 4FF	4A 4d 4f
4GGG 4GG	4G 4B 4e
4AAA 4AA	4E 4G 4c
=10	=10
*	*^
4AAA 4AA	8.FL 8.c 8.d	4rc
.	[16AJk 16c 16e	.
4DDD 4DD	4A] 4d 4f	4rc
4GGG 4GG	8eL	4B
.	8fJ	.
*	*v	*v
=11	=11
4FFF 4FF	4A 4c 4a
4GGG 4GG	4B 4e 4g
4AAA 4AA	4G 4c 4e
=12	=12
*	*^
4AAA 4AA	8.FL 8.c 8.f	4rc
.	[16cJk 16e 16g	.
4DDD 4DD	4c] 4f 4a	4rc
4GGG 4GG	4F 4B 4g	8eL
.	.	8dJ
*	*v	*v
=13	=13
*	*clefF4
4..BBB-X 4..BB-X	4r
.	4C 4F 4c
16BBB- 16BB-	.
8.AAAL 8.AA	4D 4F 4c 4d
16GGGJk 16GG	.
=14	=14
4CC 4C	4E 4G 4c 4e
8.BBB-XL 8.BB-X	4F 4B-X 4d 4f
16AAAJk 16AA	.
8.GGGL 8.GG	4G 4B- 4d 4g
16FFFJk 16FF	.
*	*clefG2
=15	=15
4DD 4D	4A 4d 4f 4a
8.BBB-XL 8.BB-X	4B-X 4d 4f 4b-X
16GGGJk 16GG	.
8.FFFL 8.FF	4d 4f 4b- 4dd
16DDDJk 16DD	.
=16	=16
8.BB-XL 8.B-X	4f 4b-X 4dd 4ff
16EEEJk 16EE	.
4BBn 4Bn	4d 4e 4g#X 4ee
8qAAA/ 8qAA	.
4AA 4A	4c 4e 4a
=17	=17
*	*^
4AA 4A	4..b-X	2B-X 2d
4GGn 4Gn	.	.
.	16b-	.
4FF 4F	8.aL	4B- 4d
.	16gJk	.
*	*v	*v
=18	=18
4..EE 4..E	4B-X 4g 4cc#X
.	4B- 4g 4dd
16EE 16E	.
8.DDL 8.D	4B- 4g 4ee
16CC#XJk 16C#X	.
=19	=19
*	*^
4BB-X 4B-X	2e 2g 2cc#X	4rc
8AAL 8A	.	4rc
8GGJ 8G	.	.
12r	8.b-XL	4c#X 4e
12FFL 12F	.	.
12BB-J 12B-	.	.
.	16b-Jk	.
=20	=20	=20
12r	2b-X	4d 4f
12EEL 12E	.	.
12BB-XJ 12B-X	.	.
12r	.	4c#X 4g
12DDL 12D	.	.
12BB-J 12B-	.	.
12r	8b-	8d 8f
12AAAL 12AA	.	.
.	8raa	8rc
[12EEJ [12E	.	.
=21	=21	=21
4EE] 4E]	4..f	2F 2A
4DD 4D	.	.
.	16f	.
4CCn 4Cn	8.eL	4F 4A
.	16dJk	.
*	*v	*v
=22	=22
4..BBB 4..BB	4F 4d 4g#X
.	4F 4d 4a
16BBB 16BB	.
8.AAAL 8.AA	4F 4d 4b
16GGG#XJk 16GG#X	.
=23	=23
4AAA 4AA	4F 4c 4f 4cc
4AA 4A	4F 4c 4f
12r	4E 4c 4e
12AAL 12A	.
12DDJ 12D	.
=24	=24
*	*^
12r	8.fL	2F 2A
12AAAL 12AA	.	.
12DDJ 12D	.	.
.	16cJk	.
12r	4c	.
12GGGL 12GG	.	.
12DDJ 12D	.	.
12r	8F 8B 8d	4rc
12FFFL 12FF	.	.
.	8raa	.
12DDJ 12D	.	.
*	*v	*v
=25	=25
*^	*
4A 4d 4f	12rEE	4a 4dd 4ff
.	12GGGL 12GG	.
.	12EEJ 12E	.
4G 4B 4e	12rEE	4g 4b 4ee
.	12AAAL 12AA	.
.	12EEJ 12E	.
4E 4G 4c	12rEE	4e 4g 4cc
.	12AAAL 12AA	.
.	12DDJ 12D	.
=26	=26	=26
8.FL 8.c 8.d	12rEE	8.fL 8.cc 8.dd
.	12DDDL 12DD	.
.	12AAJ 12A	.
[16AJk 16c 16e	.	[16aJk 16cc 16ee
4A] 4d 4f	12rEE	4a] 4dd 4ff
.	12GGGL 12GG	.
.	12GGJ 12G	.
8.GL 8.B 8.e	12rEE	8.gL 8.b 8.ee
.	12FFFL 12FF	.
.	12DDJ 12D	.
16fJk	.	16ffJk
=27	=27	=27
4c 4f 4a	12rEE	4cc 4ff 4aa
.	12GGGL 12GG	.
.	12EEJ 12E	.
4B 4e 4g	12rEE	4b 4ee 4gg
.	12AAAL 12AA	.
.	12EEJ 12E	.
4G 4c 4e	12rEE	4g 4cc 4ee
.	12AAAL 12AA	.
.	12DDJ 12D	.
=28	=28	=28
8.FL 8.c 8.d 8.f	12rEE	8.fL 8.cc 8.dd 8.ff
.	12DDDL 12DD	.
.	12AAJ 12A	.
[16cJk 16e 16g	.	[16ccJk 16ee 16gg
4c] 4f 4a	12rEE	4cc] 4ff 4aa
.	12GGGL 12GG	.
.	12GGJ 12G	.
8.BL 8.e 8.g	12rEE	8.bL 8.ee 8.gg
.	12GGL 12G	.
.	12GJ 12g	.
16dJk	.	16ddJk
*v	*v	*
=29	=29
*	*^
4..FF 4..F	12raa	12rc
.	12cL	6G 6c
.	12gJ	.
.	4g 4cc 4gg	4rc
16FF 16F	.	.
8.EEL 8.E	12gL	4A 4c 4g
.	12a	.
.	12aJ 12cc 12gg 12aa	.
16DDJk 16D	.	.
=30	=30	=30
4GG 4G	12raa	12rc
.	12gL	6B 6d 6g
.	12bJ	.
8.FFL 8.F	4cc 4ff 4aa 4ccc	4rc
16EEJk 16E	.	.
8.DDL 8.D	4d 4f 4a	12dL
.	.	12dd
.	.	12ddJ 12ff 12aa 12ddd
16CCJk 16C	.	.
=31	=31	=31
4AA 4A	12raa	12rc
.	6e 6a 6cc	12eL
.	.	12eeJ
8.FFL 8.F	4ff 4aa 4ccc 4fff	4rc
16DDJk 16D	.	.
8.CCL 8.C	4a 4cc 4ff	12aL
.	.	12aa
.	.	12aaJ 12ccc 12fff 12aaa
16AAAJk 16AA	.	.
*	*v	*v
=32	=32
8.CL 8.c	8ccL 8ff
.	8cccJ
16FFFJk 16FF	.
8DL 8d	8..cccL 8..fff 8..cccc
8CCCJ 8CC	.
.	32ggJkk 32ggg
4E 4c 4e	4gg 4ccc 4ggg
=33	=33
*	*^
4CC 4C	4..b-X	2B-X 2e
4D-X 4d-X	.	.
.	16b-	.
4C 4c	8.aL	[4e
.	16gJk	.
=34	=34	=34
[2BBn [2Bn	4a-X 4ddn	8.eL]
.	.	16fJk
.	8.fL	2f
.	16gJk	.
8BBL] 8B]	8.a-L	.
8BB-XJ 8B-X	.	.
.	16b-XJk	.
=35	=35	=35
12AA-XL 12A-X	4ff	4f 4bn
12CC 12C	.	.
12GGJ 12G	.	.
[2AA- [2A-	4cc#X	2f 2b
.	4dd	.
*	*v	*v
=36	=36
4AA-] 4A-]	2.e 2.ccn 2.ee
4GG 4G	.
4CC 4C	.
=37	=37
*	*^
12CCL	4..b-X	2B-X 2e
12GG	.	.
12CJ	.	.
8.GL	.	.
[16CJk	16b-	.
4C] 4B-X	8.aL	[4e
.	16gJk	.
=38	=38	=38
12CCL	4a-X 4dd	8.eL]
12FF	.	.
12BBnJ	.	.
.	.	16fJk
8.A-XL	8.fL	2f
16DJk	16gJk	.
4Bn	8.a-L	.
.	16b-XJk	.
=39	=39	=39
12AA-XL 12A-X	4ff	4f 4bn
12CC 12C	.	.
12GGJ 12G	.	.
[2AA- [2A-	4cc#X	2f 2b
.	4dd	.
*	*v	*v
=40	=40
4AA-] 4A-]	2.e 2.ccn 2.ee
4GG 4G	.
4CC 4C	.
=41	=41
*	*^
12AA-XL 12A-X	4f	4F 4B
12CC 12C	.	.
12GGJ 12G	.	.
[2AA- [2A-	4c#X	[2F [2B
.	4d	.
=42	=42	=42
2AA-] 2A-]	2d#X	2F] 2B]
4GG 4G	4e	4E 4B
*	*v	*v
=43	=43
2.CC 2.GG 2.C	2.E 2.G 2.c 2.e
==	==
*-	*-
!!!system-decoration: {(s1,s2)}
!!!ENC: Bryan Jacob Bell
!!!END: November 2021 to April 2022
!!!PED: Günter Philipp
!!!PTL: Ausgewählte Klavierwerke (Edition Peters)
